!!!COM: Mozart, Wolfgang Amadeus
!!!CDT: 1756/01/27/-1791/12/05/
!!!CNT: German
!!!OTL: Piano Sonata No. 17 in D major
!!!ONB: Piano Sonata No. 18 in Neue Mozart-Ausgabe [1986]
!!!SCT: K 576
!!!OMV: 1
!!!OMD: Allegro
!!!ODT: 1789///
**kern	**kern	**dynam
*staff2	*staff1	*staff1/2
*>[A,A,B]	*>[A,A,B]	*>[A,A,B]
*>norep[A,B]	*>norep[A,B]	*>norep[A,B]
*>A	*>A	*>A
*clefF4	*clefG2	*clefG2
*k[f#c#]	*k[f#c#]	*k[f#c#]
*D:	*D:	*D:
*M6/8	*M6/8	*M6/8
*MM124	*MM124	*MM124
8AA	8A	f
=1	=1	=1
8DL	8dL	.
8AA	8A	.
8DJ	8dJ	.
8F#L	8f#L	.
8D	8d	.
8F#J	8f#J	.
=2	=2	=2
4A	4a	.
8A	8a	.
4A	4a	.
*clefG2	*	*
(8g	(16cc#tLL	.
.	32bL	.
.	32cc#JJJ	.
=3	=3	=3
8f#)	8dd)	.
8r	8r	.
(8c#	(16eeTLL	.
.	32ddL	.
.	32eeJJJ	.
8d)	8ff#)	.
8r	8r	.
8G 8e	(16aaLL	.
.	16ggJJ)	.
=4	=4	=4
[4.A (>4.d	(4.ff#	.
8A] 8c#)	8ee)	.
8r	8r	.
*clefF4	*	*
8BB	8B	f
=5	=5	=5
8EL	8eL	.
8BB	8B	.
8EJ	8eJ	.
8GL	8gL	.
8E	8e	.
8GJ	8gJ	.
=6	=6	=6
4B	4b	.
8B	8b	.
4B	4b	.
*clefG2	*	*
8f# 8a	8dd#	p
=7	=7	=7
4g 4b	(16ff#LL	.
.	16ee	.
.	16gg	.
.	16ff#	.
8r	16aa	.
.	16ggJJ	.
8r	8bb)	.
8r	8r	.
8A 8e	8cc#	.
=8	=8	=8
[4.d (>4.g	(4.ee	.
8d] 8f#)	8ddn)	f
8r	8r	.
*clefF4	*	*
8AA	8r	.
=9	=9	=9
8DL	8r	.
8AA	8ddL	.
8DJ	8ff#J	.
8F#L	8aaL	.
8D	8ff#	.
8F#J	[8dddJ	.
=10	=10	=10
4A	(16dddLL]	.
.	16ccc#	.
.	16eee	.
.	16ddd	.
8A	16ccc#	.
.	16bbJJ	.
4A	16aaLL	.
.	16bb	.
.	16aa	.
.	16gg	.
(8c#	16ff#	.
.	16eeJJ	.
=11	=11	=11
8d)	16ff#LL	.
.	16aa	.
8r	16ff#	.
.	16dd	.
*clefG2	*	*
(8e	16cc#	.
.	16aJJ	.
8f#)	16ddLL	.
.	16cc#	.
8r	16dd	.
.	16ff#	.
8g	16ee	.
.	16ggJJ	.
=12	=12	=12
[4.A (>4.f#	4.dd	.
8A] 8e)	8cc#)	.
8r	8r	.
*clefF4	*	*
8BB	8r	.
=13	=13	=13
8EL>	8r	.
8BB	8eeL	.
8EJ	8ggJ	.
8GL	8bbL	.
8E	8gg	.
8GJ	[8eeeJ	.
=14	=14	=14
4B	(16eeeLL]	.
.	16ddd#	.
.	16cccn	.
.	16bb	.
8B	16aa	.
.	16ggJJ	.
4B	16ff#LL	.
.	16ee	.
.	16dd#	.
.	16ccn	.
(8d#	16b	.
.	16aJJ	.
=15	=15	=15
4e)	16gLL	.
.	16b	.
.	16ee	.
.	16b	.
8r	16gg	.
.	16eeJJ	.
8r	8bbL)	.
8r	8b	.
*clefG2	*	*
8A 8g	8cc#XJ	.
=16	=16	=16
(8dL	4dd	.
8f#	.	.
8aJ	8r	.
8dL	8r	.
8f#	(16dddLL	.
.	16ccc#	.
8aJ	16bb	.
.	16aaJJ	.
=17	=17	=17
8c#L	16gg#LL	.
.	16aa	.
8e	16gg#	.
.	16aa	.
8aJ	16bb	.
.	16aaJJ)	.
8eL	8r	.
8g	(16aaLL	.
.	16ggn	.
8aJ	16ff#	.
.	16eeJJ	.
=18	=18	=18
8dL	16cc#LL	.
.	16dd	.
8f#	16cc#	.
.	16dd	.
8aJ	16ee	.
.	16ddJJ)	.
8dL	8r	.
8f#	(16dddLL	.
.	16ccc#	.
8aJ	16bb	.
.	16aaJJ	.
=19	=19	=19
8c#L	16gg#LL	.
.	16aa	.
8e	16gg#	.
.	16aa	.
8aJ	16bb	.
.	16aaJJ)	.
8eL	8r	.
8g	(16aaLL	.
.	16ggn	.
8aJ)	16ff#	.
.	16eeJJ	.
=20	=20	=20
4f# 4a	16cc#LL	.
.	16dd	.
.	16cc#	.
.	16dd	.
8r	16gg	.
.	16ff#JJ	.
4c# 4a	16dd#LL	.
.	16ee	.
.	16dd#	.
.	16ee	.
8r	16aa	.
.	16ggJJ	.
=21	=21	=21
*^	*	*
4d 4a	4.ryy	16ee#LL	.
.	.	16ff#	.
.	.	16ee#	.
.	.	16ff#	.
8r	.	16bb	.
.	.	16aaJJ)	.
4.a	(8eL	(16aaLL	.
.	.	16gg	.
.	8f#	16ff#	.
.	.	16een	.
.	8gJ	16dd	.
.	.	16cc#JJ	.
=22	=22	=22	=22
4a	4f#)	16cc#LL	.
.	.	16dd	.
.	.	16cc#	.
.	.	16dd	.
8r	2ryy	16gg	.
.	.	16ff#JJ	.
4c# 4a	.	16dd#LL	.
.	.	16ee	.
.	.	16dd#	.
.	.	16ee	.
8r	.	16aa	.
.	.	16ggJJ	.
=23	=23	=23	=23
4d 4a	4.ryy	16ee#LL	.
.	.	16ff#	.
.	.	16ee#	.
.	.	16ff#	.
8r	.	16bb	.
.	.	16aaJJ)	.
4.a	(8eL	(16aaLL	.
.	.	16gg	.
.	8f#	16ff#	.
.	.	16een	.
.	8gJ	16dd	.
.	.	16cc#JJ)	.
*v	*v	*	*
=24	=24	=24
4f#) 4a	16r	.
.	(16ddLL	.
.	16ff#	.
.	16aa	.
8e 8g	16ddd	.
.	16ccc#JJ)	.
4d 4f#	16r	.
.	(16bLL	.
.	16dd	.
.	16ff#	.
8c# 8e	16bb	.
.	16aaJJ)	.
*clefF4	*	*
=25	=25	=25
4B 4d	16r	.
.	(16gLL	.
.	16b	.
.	16dd	.
8A 8c#	16gg	.
.	16ff#JJ)	.
4G 4B	16r	.
.	(16eLL<	.
.	16g	.
.	16b	.
8G# 8B	16ee	.
.	16ddJJ	.
=26	=26	=26
(16ALL	8cc#L)	.
16e	.	.
16c#	8aa	.
16e	.	.
16d	8dd 8ff#J	.
16f#JJ	.	.
16ALL	8cc# 8eeL	.
16e	.	.
16c#	8aa	.
16e	.	.
16d	8dd 8ff#J	.
16f#JJ	.	.
=27	=27	=27
8A 8c# 8e)	8cc# 8eeL	.
8r	8aa	.
8AA 8A	8aJ	.
8AA 8A	8a	.
8r	8r	.
8r	8ee	.
*clefG2	*	*
=28	=28	=28
8eL	8aaL	.
8a	8ee	.
8eJ	8aaJ	.
8aL	8ccc#L	.
8cc#	8aa	.
8aJ	8ccc#J	.
=29	=29	=29
8cc#L	(16eeeLL	.
.	16ddd	.
(16eeL	16ccc#	.
16dd	16bb	.
16cc#	16aa#	.
16bJJ	16gg#JJ	.
16a#LL	16ff#LL	.
16g#	16ee	.
16f#	16dd	.
16e	16cc#	.
16d	16b	.
16c#JJ	16a#JJ	.
*clefF4	*	*
=30	=30	=30
16BLL	8bL)	.
16A#JJ	.	.
8BL)	8f#	.
8F#J	8bJ	.
8BL	8ddL	.
8d	8b	.
8BJ	8ddJ	.
=31	=31	=31
8dL	(16ff#LL	.
.	16ee	.
(16f#L	16dd	.
16e	16cc#	.
16d	16b	.
16c#JJ	16a#JJ	.
16BLL	16ddLL	.
16A#	16cc#	.
16d	16b	.
16c#	16an	.
16B	16g#	.
16AnJJ	16f#JJ	.
=32	=32	=32
16G#LL	8eL)	.
16F#JJ	.	.
8EL<)	8B	.
8BBJ	8eJ	.
8EL	8g#L	.
8G#	8e	.
8EJ	8g#J	.
=33	=33	=33
!	!LO:TX:a:i:t=legato	!
8G#L	16bLL	.
.	16cc#	.
(16BL	16dd	.
16c#	16cc#	.
16d	16b	.
16c#JJ	16aJJ	.
16BLL	16g#LL	.
16A	16f#	.
16G#	16e	.
16F#	16f#	.
16G#	16d	.
16EJJ	16eJJ	.
=34	=34	=34
4A)	16c#LL	.
.	16e	.
.	16d#	.
.	16e	.
8r	16f#	.
.	16eJJ	.
4A 4c#	16aLL	.
.	16e	.
.	16d#	.
.	16e	.
8r	16f#	.
.	16eJJ	.
=35	=35	=35
4G#	16BLL	.
.	16e	.
.	16d#	.
.	16e	.
8A	16c#	.
.	16eJJ	.
8BL	16dnLL	.
.	16e	.
8A	16c#	.
.	16e	.
8G#J	16B	.
.	16eJJ	.
=36	=36	=36
4A	16c#LL	.
.	16e	.
.	16d#	.
.	16e	.
8r	16f#	.
.	16eJJ	.
4A 4c#	16aLL	.
.	16e	.
.	16d#	.
.	16e	.
8r	16f#	.
.	16eJJ	.
=37	=37	=37
4G#	16BLL	.
.	16e	.
.	16d#	.
.	16e	.
8A	16c#	.
.	16eJJ	.
8BL	16dnLL	.
.	16e	.
8A	16c#	.
.	16e	.
8G#J	16B	.
.	16eJJ	.
=38	=38	=38
4A	16r	.
.	16c#LL	.
.	16e	.
.	16a	.
8r	16cc#	.
.	16eeJJ	.
8A 8c#L	16aaLL	.
.	16gg#	.
8B 8d	16ff#	.
.	16ee	.
8c# 8eJ	16dd	.
.	16cc#JJ	.
=39	=39	=39
4d 4f#	16r	.
.	16a#LL	.
.	16b	.
.	16cc#	.
8r	16dd	.
.	16eeJJ	.
8B 8dL	16ff#LL	.
.	16ee	.
8c# 8e	16dd	.
.	16cc#	.
8d 8f#J	16b	.
.	16anJJ	.
=40	=40	=40
*^	*	*
8rc	4.E	16eLL	.
.	.	16cc#	.
8A 8c#L	.	16a	.
.	.	16ee	.
8A 8c#J	.	16cc#	.
.	.	16aaJJ	.
8rc	4.E	4.bTT	.
8G# 8dL	.	.	.
8G# 8dJ	.	.	.
.	.	(16aqLL	.
.	.	16bqJJ)	.
=41	=41	=41	=41
8c#	8A	8aL	.
8ryy	8AAL	8A	.
2ryy	8AAJ	8AJ	.
.	8AA	8A	.
.	8r	8r	.
.	8r	(8cc#	p
*v	*v	*	*
=42	=42	=42
!	!LO:TX:b:i:t=dolce	!
2.r	4dd	.
.	8ee	.
.	8ff#L	.
.	16eeL	.
.	16dd	.
.	16cc#	.
.	16bJJ	.
=43	=43	=43
[4.E [4.B [4.d	4.a	.
4E] 4B] 4d]	4g#)	.
8D 8G#	8f#	.
=44	=44	=44
*	*^	*
4C# 4A	(8f#L	4.ryy	.
.	8e)	.	.
8r	8e'J	.	.
8r	(<8eL	4ryy	.
(8C#L	8a)	.	.
8AAJ)	8cc#J	8a	.
=45	=45	=45	=45
[4.E	(4cc#	(4.a	.
.	8dd)	.	.
8E]	8b	8g#)	.
8r	4ryy	8r	.
8r	.	(8cc#	.
*	*v	*v	*
=46	=46	=46
2.r	8ddL)	.
.	(16ddL	.
.	16cc#	.
.	16ee	.
.	16ddJJ	.
.	16ff#LL	.
.	16ee	.
.	16dd	.
.	16cc#	.
.	16dd	.
.	16bJJ	.
=47	=47	=47
[4.E [4.B [4.d	16aLL	.
.	16g#	.
.	16b	.
.	16a	.
.	16cc#	.
.	16bJJ	.
4E] 4B] 4d]	16ddLL	.
.	16cc#	.
.	16ee	.
.	16dd	.
*clefG2	*	*
8d 8g#	16ff#	.
.	16eeJJ	.
=48	=48	=48
8c# 8a	16eeLL	.
.	16aa	.
8r	16gg#	.
.	16ggn	.
8d 8a	16ff#	.
.	16ffnJJ	.
8c# 8a	16eeLL	.
.	16aa	.
8r	16gg#	.
.	16ggn	.
8d 8a	16ff#	.
.	16ffnJJ	.
=49	=49	=49
*^	*	*
(4.a	(2.c#	4.ee	.
4.g# 4.b	.	4.ee#	fp
=50	=50	=50	=50
8f# 8a)	8d)	8ff#)	.
8r	8r	8r	.
8r	2ryy	(16ff#LL	.
.	.	16gg#JJ	.
4r	.	16aaLL	.
.	.	16ee#	.
.	.	16ff#	.
.	.	16cc#	.
8r	.	16dd	.
.	.	16bJJ)	.
*v	*v	*	*
*clefF4	*	*
=51	=51	=51
8r	2.a	.
8r	.	.
8E (8c#	.	.
4Fn 4d	.	.
8F# 8d#)	.	.
=52	=52	=52
*^	*^	*
4.e	2.E	4.cc#	4.a	.
.	.	32cc#qq	.	.
4.dn	.	8b'L	4g#	.
.	.	8a'	.	.
.	.	8b'J	8r	.
*v	*v	*	*	*
*	*v	*v	*
=53	=53	=53
(8AL	8a	.
8c#	8r	.
8eJ	(16dd#LL	.
.	16eeJJ	.
8AL	16ff#LL	.
.	16ee	.
8c#	16ddn	.
.	16cc#	.
8eJ	16b	.
.	16aJJ	.
=54	=54	=54
8EL	16g#LL	.
.	16a	.
8G#	16b	.
.	16cc#	.
8BJ	16dd	.
.	16eeJJ	.
8EL	16ff#LL	.
.	16gg#	.
8G#	16aa	.
.	16bb	.
8BJ)	16ccc#	.
.	16dddJJ	.
=55	=55	=55
(8AL	8ccc#)	.
8c#	8r	.
8eJ	(16dd#LL	.
.	16eeJJ	.
8AL	16ff#LL	.
.	16ee	.
8c#	16ddn	.
.	16cc#	.
8eJ	16b	.
.	16aJJ	.
=56	=56	=56
8EL	16g#LL	.
.	16f#	.
8B	16e	.
.	16f#	.
8dJ	16g#	.
.	16aJJ	.
8EL	16bLL	.
.	16cc#	.
8B	16dd	.
.	16ee	.
8dJ)	16ff#	.
.	16gg#JJ	.
=57	=57	=57
*^	*	*
(4c#	4.A	8aaL	.
.	.	8ee	.
8e	.	8ccc#J	.
4c#	4.A	8aaL	.
.	.	8ee	.
8e	.	8ccc#J	.
=58	=58	=58	=58
4c#)	4A	4aa)	.
4.r	8r	8r	.
.	4r	4r	.
*v	*v	*	*
=:|!	=:|!	=:|!
*>B	*>B	*>B
8r	8r	.
=59	=59	=59
*^	*	*
(4cn	4.A	(8aaL	p
.	.	8ee	.
8e	.	8cccnJ	.
4c	4.A	8aaL	.
.	.	8ee	.
8e	.	8cccJ	.
=60	=60	=60	=60
4cn)	4A	4aa)	.
2ryy	8r	8r	.
.	4r	4r	.
.	8r	8r	.
=61	=61	=61	=61
4.cn 4.e-	(4Fn	(8aaL	f
.	.	8ee-	.
.	8G-)	8cccnJ	.
4.c 4.e-	(4F	8aaL	.
.	.	8ee-	.
.	8G-)	8cccJ	.
=62	=62	=62	=62
4cn 4e-	4Fn	4aa)	.
2r	8r	8r	.
.	4r	4r	.
.	8r	8fn	.
*v	*v	*	*
=63	=63	=63
4r	8b-L	.
.	8fn	.
8r	8b-J	.
4r	8ddL	.
.	8b-	.
8Fn	8ddJ	.
=64	=64	=64
8B-L	4ffn	.
8Fn	.	.
8B-J	8ff	.
8dL	4ff	.
8B-	.	.
8dJ	8bb-	.
=65	=65	=65
4fn	(16aaLL	.
.	16gg	.
.	16ffn	.
.	16gg	.
8f	16aa	.
.	16bb-JJ	.
4f	16cccnLL	.
.	16bb-	.
.	16aa	.
.	16bb-	.
*clefG2	*	*
(8b-	16ccc	.
.	16dddJJ	.
=66	=66	=66
16aLL	8eee-L)	.
16g	.	.
16fn	8ffn	.
16g	.	.
16a	[8eee-J	.
16b-JJ	.	.
16ccnLL	8eee-L]	.
16b-	.	.
16a	8ff	.
16b-	.	.
16cc	[8eee-J	.
16ddJJ	.	.
=67	=67	=67
8.ee-L	(16eee-LL]	.
.	16fffn	.
.	16eee-	.
16ffnL	16ddd	.
16ee-	16cccn	.
16ddJJ	16bb-JJ	.
16ccnLL	16aaLL	.
16dd	16bb-	.
16cc	16aa	.
16b-	16gg	.
16a	16ffn	.
16gJJ	16ee-JJ	.
=68	=68	=68
4f#X	16ddLL	.
.	16ee-	.
.	16dd	.
.	16cccn	.
8g)	16ee-	.
.	16cccJJ	.
(4f#	16ddLL	.
.	16ee-	.
.	16dd	.
.	16ccc	.
8g)	16ee-	.
.	16cccJJ	.
=69	=69	=69
4f#	16ddLL	.
.	16cccn	.
.	16aa	.
.	16gg	.
8r	16ff#X	.
.	16ee-JJ	.
4r	16ddLL	.
.	16ee-	.
.	16dd	.
.	16ccn	.
*clefF4	*	*
8D	16b-	.
.	16aJJ)	.
=70	=70	=70
8GL	8g	.
8D	8r	.
8GJ	8d	.
8B-L	8gL	.
8G	8d	.
8B-J	8gJ	.
=71	=71	=71
4d	8b-L	.
.	8g	.
8d	8b-J	.
4d	4dd	.
*clefG2	*	*
8g	8dd	.
=72	=72	=72
(16f#XLL	4dd	.
16en	.	.
16f#	.	.
16dJ	.	.
8b-J)	8gg	.
8a	(16ff#XLL	.
.	16een	.
8r	16ff#	.
.	16ddJ	.
8g	8bb-J)	.
=73	=73	=73
(16f#LL	8aa	.
16e	.	.
16f#	8r	.
16dJ	.	.
8ccnJ	8aa	.
8b-/)	(16ggLL	.
.	16ff#	.
8r	16gg	.
.	16ddJ	.
8a	8cccnJ)	.
=74	=74	=74
4.g	(16bb-LL	.
.	16dd	.
.	16ee-	.
.	16dd	.
.	16ee-	.
.	16ddJJ	.
4.fn	16aaLL	.
.	16dd#	.
.	16een	.
.	16dd#	.
.	16ee	.
.	16dd#JJ	.
=75	=75	=75
4e	16gg#LL	.
.	16aa	.
.	16bbn	.
.	16cccn	.
8r	16ddd	.
.	16cccJJ	.
4r	16bbLL	.
.	16aa	.
.	16gg#	.
.	16ffn	.
8r	16ee	.
.	16ddJJ	.
*clefF4	*	*
=76	=76	=76
16ALL	4.ccn)	.
16e	.	.
16fn	.	.
16e	.	.
16f	.	.
16eJJ	.	.
16GnLL	4.b	.
16e#	.	.
16f#	.	.
16e#	.	.
16f#	.	.
16e#JJ	.	.
=77	=77	=77
4F#X 4f#X	16r	.
.	(16a#LL	.
.	16cc#X	.
.	16ff#X	.
8r	16aa#	.
.	16ccc#JJ	.
4r	16eeeLL	.
.	16ccc#	.
.	16aa#	.
.	16ggn	.
8r	16ff#	.
.	16eeJJ	.
*clefG2	*	*
=78	=78	=78
16r	8dd)	.
(16BLL	.	.
16d	8r	.
16f#JJ	.	.
8b/)	16r	.
.	(16dd	.
16r	8b 8ee#)	.
(16GLL	.	.
16B	8r	.
16dJJ	.	.
8g)	16r	.
.	16b (16ee#	.
*clefF4	*	*
=79	=79	=79
*^	*	*
8r	4.F#	16ff#LL	.
.	.	16cc#	.
8A# 8c#L	.	16ff#	.
.	.	16aa#	.
8A# 8c#J	.	16ccc#	.
.	.	16aa#JJ	.
8r	4.F#	16dddLL	.
.	.	16bb	.
8B 8dL	.	16ddd	.
.	.	16bb	.
8B 8dJ	.	16gg#	.
.	.	16ee#JJ	.
=80	=80	=80	=80
8r	4.F#	16ff#LL	.
.	.	16cc#	.
8A# 8c#L	.	16ff#	.
.	.	16aa#	.
8A# 8c#J	.	16ccc#	.
.	.	16aa#JJ	.
8r	4.F#	16dddLL	.
.	.	16bb	.
8B 8dL	.	16ddd	.
.	.	16bb	.
8B 8dJ	.	16gg#	.
.	.	16ee#JJ	.
=81	=81	=81	=81
4A# 4c#	4F#	8ff#L	.
.	.	8cc#	.
2r	8r	8aa#J	.
.	4r	8ff#L	.
.	.	8cc#	.
.	8r	8aa#J	.
*v	*v	*	*
*clefG2	*	*
=82	=82	=82
(8f#L	4ff#)	.
8c#	.	.
8a#J	8r	.
8f#L	4r	.
8c#	.	.
8a#J	8r	.
=83	=83	=83
4f#)	(8ff#L	.
.	8cc#	.
8r	8aanJ	.
4r	8ff#L	.
.	8cc#	.
8r	8aaJ	.
=84	=84	=84
*^	*	*
2.b	(4.f#	8gg#L	.
.	.	8cc#	.
.	.	8bbJ	.
.	4.e#)	8gg#L	.
.	.	8cc#	.
.	.	8bbJ	.
=85	=85	=85	=85
(4.gn	2.en	8aa#L	.
.	.	8cc#	.
.	.	8ccc#J	.
4.f#)	.	8aa#L	.
.	.	8cc#	.
.	.	8ccc#J	.
*v	*v	*	*
*clefF4	*	*
=86	=86	=86
(8BL	4bb)	.
8F#	.	.
8dJ	8r	.
8BL	4r	.
8F#	.	<
8dJ	8r	.
=87	=87	=87
*	*^	*
8c#L	(4.bb	2.ee	.
8F#	.	.	.
8eJ	.	.	.
8c#L	4.aa#)	.	.
8F#	.	.	.
8eJ	.	.	.
=88	=88	=88	=88
8d#L	2.aan	(4.ccn	.
8F#	.	.	.
8f#J	.	.	.
8d#L	.	4.b)	.
8F#	.	.	.
8f#J	.	.	.
*	*v	*v	*
=89	=89	=89
4e)	(8eeL	.
.	8b	.
8r	8ggnJ	.
4r	8eeL	.
.	8b	.
8r	8ggJ	.
=90	=90	=90
*^	*	*
(4.e	2.B	8ff#L	.
.	.	8b	.
.	.	8aaJ	.
4.d#)	.	8ff#L	.
.	.	8b	.
.	.	8aaJ	.
=91	=91	=91	=91
2.dn	(4.Fn	8gg#L	.
.	.	8b	.
.	.	8bbJ	.
.	4.E)	8gg#L	.
.	.	8b	.
.	.	8bbJ)	.
*v	*v	*	*
*clefG2	*	*
=92	=92	=92
(8c#L	4aa	.
8A	.	.
8eJ	8r	.
8c#L	4r	.
8A	.	.
8eJ	8r	.
=93	=93	=93
*	*^	*
8dL	2.aa	4.b-	.
8A	.	.	.
8fnJ	.	.	<
8d#L	.	4.bn	.
8A	.	.	.
8f#J	.	.	.
=94	=94	=94	=94
8eL	2.aa	4.ccn	.
8A	.	.	.
8gJ	.	.	.
8eL	.	4.cc#	.
8A	.	.	.
8gJ	.	.	.
=95	=95	=95	=95
8f#L	2.aa	4.dd	.
8A	.	.	.
8aJ	.	.	.
8fnL	.	4.dd#	.
8A	.	.	.
8aJ	.	.	.
=96	=96	=96	=96
8eL	2.aa	4.ee	.
8A	.	.	.
8aJ	.	.	.
8dnL	.	4.ff#X	.
8A	.	.	.
8aJ)	.	.	.
*	*v	*v	*
=97	=97	=97
4A 4c#	(16ggLL	f
.	16aa	.
.	16bb	.
.	16aa	.
8r	16gg	.
.	16ff#JJ	.
4r	16eeLL	.
.	16ff#	.
.	16gg	.
.	16ff#	.
8r	16ee	.
.	16ddJJ	.
=98	=98	=98
4r	16cc#LL	.
.	16dd	.
.	16ee	.
.	16dd	.
8r	16cc#	.
.	16bJJ	.
4r	16aLL	.
.	16b	.
.	16a	.
.	16g	.
*clefF4	*	*
8AA	16f#	.
.	16eJJ	.
=99	=99	=99
8DL	8dL)	.
8AA	8A	.
8DJ	8dJ	.
8F#L	8f#L	.
8D	8d	.
8F#J	8f#J	.
=100	=100	=100
4A	4a	.
8A	8a	.
4A	4a	.
*clefG2	*	*
((8g 8a	(16cc#tLL	p
.	32bL	.
.	32cc#JJJ	.
=101	=101	=101
8f#) 8a)	8dd)	.
8r	8r	.
(8c# [8a	(16eeTLL	.
.	32ddL	.
.	32eeJJJ	.
8d) 8a]	8ff#)	.
8r	8r	.
8G 8e	(16aaLL	.
.	16ggJJ)	.
=102	=102	=102
[4.A (4.d	(4.ff#	.
8A] 8c#)	8ee)	.
8r	8r	.
*clefF4	*	*
8BB	8B	f
=103	=103	=103
8EL	8eL	.
8BB	8B	.
8EJ	8eJ	.
8GL	8gL	.
8E	8e	.
8GJ	8gJ	.
=104	=104	=104
4B	4b	.
8B	8b	.
4B	4b	.
*clefG2	*	*
8f# 8a	8dd#	p
=105	=105	=105
4g 4b	(16ff#LL	.
.	16ee	.
.	16gg	.
.	16ff#	.
8r	16aa	.
.	16ggJJ	.
4r	8bb)	.
.	8r	.
8A 8e	8cc#	.
=106	=106	=106
[4.d (4.g	(4.ee	.
8d] 8f#)	8ddn)	f
8r	8r	.
*clefF4	*	*
8AA	8r	.
=107	=107	=107
8DL	8r	.
8AA	8ddL	.
8DJ	8ff#J	.
8F#L	8aaL	.
8D	8ff#	.
8F#J	[8dddJ	.
=108	=108	=108
4A	(16dddLL]	.
.	16ccc#	.
.	16eee	.
.	16ddd	.
8A	16ccc#	.
.	16bbJJ	.
8A	16aaLL	.
.	16bb	.
8r	16aa	.
.	16gg	.
[8g	16ff#	.
.	16eeJJ	.
=109	=109	=109
(16gLL]	4dd)	.
16f#	.	.
16a	.	.
16g	.	.
16f#	8dd	.
16eJJ	.	.
16dLL	8dd	.
16e	.	.
16d	8r	.
16cn	.	.
16B	8d	.
16AJJ	.	.
=110	=110	=110
8GL)	8gL	.
8GG	8d	.
8BBJ	8gJ	.
8DL	8bL	.
8BB	8g	.
[8GJ	8bJ	.
=111	=111	=111
(16GLL]	4dd	.
16F#	.	.
16A	.	.
16G	.	.
16F#	8dd	.
16EJJ	.	.
16DLL	8dd	.
16E	.	.
16D	8r	.
16Cn	.	.
16BB	[8ccn	.
16AAJJ	.	.
=112	=112	=112
8GG)	16ccnLL]	.
.	16b	.
8r	16dd	.
.	16ccn	.
[8cn	16b	.
.	16aJJ	.
(16cLL]	8g	.
16B	.	.
16d	8r	.
16c	.	.
16B	[8cccn	.
16AJJ	.	.
=113	=113	=113
8G)	(16cccLL]	.
.	16bb	.
8r	16ddd	.
.	16cccn	.
*clefG2	*	*
[8ccn	16bb	.
.	16aaJJ	.
(16ccLL]	8gg#)	.
16b	.	.
16ee	8r	.
16dd	.	.
16cc	[8dd	.
16bJJ	.	.
=114	=114	=114
8a)	(16ddLL]	.
.	16ccn	.
8r	16ee	.
.	16dd	.
*clefF4	*	*
[8d	16cc	.
.	16bJJ	.
(16dLL]	8a)	.
16cn	.	.
16e	8r	.
16d	.	.
16c	[8ddd	.
16BJJ	.	.
=115	=115	=115
8A)	(16dddLL]	.
.	16cccn	.
8r	16eee	.
.	16ddd	.
*clefG2	*	*
[8dd	16ccc	.
.	16bbJJ	.
(16ddLL]	8aa#)	.
16cc#X	.	.
16ff#	8r	.
16ee	.	.
16dd	[8ee	.
16cc#JJ	.	.
=116	=116	=116
8b)	(16eeLL]	.
.	16dd	.
8r	16ff#	.
.	16ee	.
[8e	16dd	.
.	16cc#XJJ	.
(16eLL]	8b)	.
16d	.	.
16g	8r	.
16f#	.	.
16e	[8ff#	.
16dJJ	.	.
=117	=117	=117
8c#)	(16ff#LL]	.
.	16ee	.
8r	16gg	.
.	16ff#	.
[8f#	16ee	.
.	16ddJJ	.
(16f#LL]	8cc#)	.
16e	.	.
16a	8r	.
16g	.	.
16f#	8gg	.
16eJJ	.	.
=118	=118	=118
8d)	(16ff#LL	.
.	16dd	.
8r	16ff#	.
.	16aa	.
8e 8g	16ddd	.
.	16ccc#JJ)	.
4d 4f#	16r	.
.	(16bLL	.
.	16dd	.
.	16ff#	.
8c# 8e	16bb	.
.	16aaJJ)	.
*clefF4	*	*
=119	=119	=119
4B 4d	16r	.
.	(16gLL	.
.	16b	.
.	16dd	.
8A 8c#	16gg	.
.	16ff#JJ)	.
4G 4B	16r	.
.	(16eLL<	.
.	16g	.
.	16b	.
8G# 8B	16ee	.
.	16ddJJ	.
=120	=120	=120
(16ALL	8cc#L)	.
16e	.	.
16c#	8aa	.
16e	.	.
16d	8dd 8ff#J	.
16f#JJ	.	.
16ALL	8cc# 8eeL	.
16e	.	.
16c#	8aa	.
16e	.	.
16d	8dd 8ff#J	.
16f#JJ)	.	.
=121	=121	=121
8A 8c# 8e	8cc# 8eeL	.
8r	8aa	.
8AA 8A	8aJ	.
8AA 8A	8a	.
8r	8r	.
8r	(8f#	p
=122	=122	=122
!	!LO:TX:i:t=dolce	!
2.r	4g	.
.	8a	.
.	8bL	.
.	16aL	.
.	16g	.
.	16f#	.
.	16eJJ	.
=123	=123	=123
[4.AA [4.E [4.G	4.d	.
4AA] 4E] 4G]	4c#)	.
8GG 8C#	8B	.
=124	=124	=124
4FF# 4D	(8BL	.
.	8A)	.
8r	8A'J	.
8r	(8AL	.
(8FF#L	8d)	.
8DDJ)	8d' 8f#'J	.
=125	=125	=125
[4.AA	4d 4f#	.
.	8e 8g	.
8AA]	8c# 8e	.
8r	8r	.
8r	(8f#	.
=126	=126	=126
2.r	4g	.
.	8a	.
.	8bL	.
.	16aL	.
.	16g	.
.	16f#	.
.	16eJJ)	.
=127	=127	=127
[4.AA/ 4.E/ [4.G/	(4.d	.
4AA/] 4E/ 4G/]	8c#L)	.
.	(8b	.
8GG 8C#	8aJ)	.
=128	=128	=128
8FF# 8D	(8aL	.
8r	8dd)	.
8BB 8G	8d'J	.
8AA 8A	8d 8f#	.
8r	8r	.
8AA 8G	8c# 8e	.
=129	=129	=129
[4.D (4.G	(>4.c# (4.e	.
8D] 8F#)	8d))	.
8r	8r	.
8r	(8ff#	.
=130	=130	=130
2.r	8ggL)	.
.	(16ggL	.
.	16ff#	.
.	16aa	.
.	16ggJJ	.
.	16bbLL	.
.	16aa	.
.	16gg	.
.	16ff#	.
.	16gg	.
.	16eeJJ	.
*clefG2	*	*
=131	=131	=131
[4.A [4.e [4.g	4dd	.
.	16eeLL	.
.	16ddJJ	.
4A] 4e] 4g]	4cc#)	.
8B 8d 8g#	8b	.
=132	=132	=132
(4.c# 4.e 4.gn	(8bL	.
.	8a)	.
.	8a'J	.
4.d) 4.f#	(8aL	.
.	8dd)	.
.	8dd' 8ff#'J	.
=133	=133	=133
[4.A [4.a	4dd (4ff#	.
.	8ee 8gg)	.
8A] 8a]	8cc#' 8ee'	.
8r	8r	.
8r	(8ff#	.
=134	=134	=134
2.r	8ggL)	.
.	(16ggL	.
.	16ff#	.
.	16aa	.
.	16ggJJ	.
.	16bbLL	.
.	16aa	.
.	16gg	.
.	16ff#	.
.	16gg	.
.	16eeJJ	.
=135	=135	=135
2.g 2.a	16ddLL	.
.	16cc#	.
.	16ee	.
.	16dd	.
.	16ff#	.
.	16eeJJ	.
.	16ggLL	.
.	16ff#	.
.	16aa	.
.	16gg	.
.	16bb)	.
.	16aaJJ	.
=136	=136	=136
8r	(4.aa	.
8fn 8dd#L	.	.
8f 8dd#J	.	.
8r	4.gg#)	.
8e 8ddnL	.	.
8e 8ddJ	.	.
=137	=137	=137
8r	(4.ggn	.
8b 8ddL	.	.
8b 8ddJ	.	.
8a# 8cc#	8ff#)	.
8r	8r	.
8r	8f#	f
*clefF4	*	*
=138	=138	=138
8F#L	8bL	.
8B	8f#	.
8F#J	8bJ	.
8BL	8ddL	.
8d	8b	.
8BJ	8ddJ	.
=139	=139	=139
8dL	(16ff#LL	.
.	16ee	.
(16f#L	16dd	.
16e	16cc#	.
16d	16b	.
16c#JJ	16a#JJ	.
16BLL	16ddLL	.
16A#	16cc#	.
16d	16b	.
16c#	16an	.
16B	16g	.
16AnJJ	16f#JJ	.
=140	=140	=140
16GLL	8eL)	.
16F#JJ	.	.
8EL<)	8B	.
8BBJ	8eJ	.
8EL	8gL	.
8G	8e	.
8EJ	8gJ	.
=141	=141	=141
8GL	(16bLL	.
.	16a	.
(16BL	16g	.
16A	16f#	.
16G	16e	.
16F#JJ	16d#JJ)	.
16ELL	(16ggLL	.
16D#)	16ff#	.
(16g	16ee	.
16f#	16ddn	.
16e	16cc#	.
16dnJJ	16bJJ	.
=142	=142	=142
16c#LL	8aL)	.
16BJJ	.	.
8AL)	8e	.
8EJ	8aJ	.
8AL	8cc#L	.
8c#	8a	.
8AJ	8cc#J	.
=143	=143	=143
8c#L	(16eeLL	.
.	16ff#	.
(16eL	16gg	.
16f#	16ff#	.
16g	16ee	.
16f#JJ	16ddJJ	.
16eLL	16cc#LL	.
16d	16b	.
16c#	16a	.
16B	16b	.
16c#	16g	.
16AJJ	16aJJ	.
=144	=144	=144
4d)	16f#LL	.
.	16a	.
.	16g#	.
.	16a	.
8r	16b	.
.	16aJJ	.
4d 4f#	16ddLL	.
.	16a	.
.	16g#	.
.	16a	.
8r	16b	.
.	16aJJ	.
=145	=145	=145
4c#	16eLL	.
.	16a	.
.	16g#	.
.	16a	.
8d	16f#	.
.	16aJJ	.
8eL	16gnLL	.
.	16a	.
8d	16f#	.
.	16a	.
8c#J	16e	.
.	16aJJ)	.
=146	=146	=146
4d 4f#	16r	.
.	(16aaLL	.
.	16gg#	.
.	16aa	.
8r	16bb	.
.	16aaJJ	.
*clefG2	*	*
4dd 4ff#	16dddLL	.
.	16aa	.
.	16gg#	.
.	16aa	.
8r	16bb	.
.	16aaJJ	.
=147	=147	=147
4cc#	16eeLL	.
.	16aa	.
.	16gg#	.
.	16aa	.
8dd	16ff#	.
.	16aaJJ	.
8eeL	16ggnLL	.
.	16aa	.
8dd	16ff#	.
.	16aa	.
8cc#J	16ee	.
.	16aaJJ)	.
=148	=148	=148
4dd	16r	.
.	(16ff#LL	.
.	16gg	.
.	16aa	.
8r	16bb	.
.	16ccc#JJ	.
(8d 8f#L	16dddLL	.
.	16ccc#	.
8e 8g	16bb	.
.	16aa	.
8f#) 8aJ	16gg	.
.	16ff#JJ)	.
=149	=149	=149
4g 4b	16r	.
.	(16dd#LL	.
.	16ee	.
.	16ff#	.
8r	16gg	.
.	16aaJJ	.
(8e 8gL	16bbLL	.
.	16aa	.
8f# 8a	16gg	.
.	16ff#	.
8g) 8bJ	16ee	.
.	16ddnJJ)	.
=150	=150	=150
*^	*	*
8r	4.A	16r	.
.	.	(16g#LL<	.
8d 8f#L	.	16b	.
.	.	16a	.
8d 8f#J	.	16cc#	.
.	.	16bJJ	.
8r	4.A	16ddLL	.
.	.	16cc#	.
8d 8f#L	.	16ee	.
.	.	16dd	.
8d 8f#J	.	16ff#	.
.	.	16eeJJ	.
=151	=151	=151	=151
8r	4.A	16ggnLL	.
.	.	16ff#	.
8d 8f#L	.	16aa	.
.	.	16gg	.
8d 8f#J	.	16bb	.
.	.	16aaJJ	.
8r	4.A	16ccc#LL	.
.	.	16bb	.
8d 8f#L	.	16ddd	.
.	.	16ccc#	.
8d 8f#J	.	16eee	.
.	.	16dddJJ	.
*v	*v	*	*
=152	=152	=152
4G# 4B 4d 4fn	8fffn)	.
.	8r	.
8r	(16bbLL	.
.	16ccc#JJ	.
4r	16dddLL	.
.	16gg#	.
.	16bb	.
.	16dd	.
8r	16ffn	.
.	16bJJ	.
=153	=153	=153
*^	*	*
8r	4r	2.dd)	p
8r	.	.	.
(8f#	8A	.	.
4g	4B-	.	.
8g#)	8Bn	.	.
=154	=154	=154	=154
*	*	*^	*
4.a	2.A	4.ff#	4.dd	.
.	.	32ff#qq	.	.
4.gn	.	8ee'L	4.cc#	.
.	.	8dd'	.	.
.	.	8ee'J	.	.
*v	*v	*	*	*
*	*v	*v	*
=155	=155	=155
(8dL	8dd	.
8f#	8r	.
8aJ	(16gg#LL	.
.	16aaJJ	.
8dL	16bbLL	.
.	16aa	.
8f#	16ggn	.
.	16ff#	.
8aJ	16ee	.
.	16ddJJ	.
=156	=156	=156
8AL	16cc#LL	.
.	16dd	.
8c#	16dd#	.
.	16ee	.
8eJ	16ffn	.
.	16ff#JJ	.
8AL	16ggLL	.
.	16gg#	.
8d	16aa	.
.	16aa#	.
8eJ)	16bb	.
.	16ggnJJ	.
=157	=157	=157
(8dL	8ff#)	.
8f#	8r	.
8aJ	(16gg#LL	.
.	16aanJJ	.
8dL	16bbLL	.
.	16aa	.
8f#	16ggn	.
.	16ff#	.
8aJ	16ee	.
.	16ddnJJ	.
=158	=158	=158
8AL	16cc#LL	.
.	16dd	.
8e	16dd#	.
.	16ee	.
8gJ	16ffn	.
.	16ff#JJ	.
8AL	16ggLL	.
.	16aa	.
8e	16bb	.
.	16gg	.
8gJ)	16ee	.
.	16cc#JJ	.
=159	=159	=159
*^	*	*
(4f#	4.d	8ddnL	.
.	.	8a	.
8a	.	8ff#J	.
4f#	4.d	8ddL	.
.	.	8a	.
8a	.	8ff#J	.
=160	=160	=160	=160
4f#)	4d	4dd)	.
8r	4.ryy	8r	.
4r	.	4r	.
*v	*v	*	*
==	==	==
*-	*-	*-
!!!RDF**kern: > = above
!!!RDF**kern: < = below
!!!YOR: Alte Mozart-Ausgabe, Band 20, Breitkopf &amp; H&auml;rtel 1877-1883.
!!!YOY: 1878
!!!YEC: 2018 Craig Stuart Sapp
!!!YEM: Licence: (CC BY-NC-SA 4.0) https://creativecommons.org/licenses/by-nc-sa/4.0
!!!YER: 2018
!!!ENC: Craig Stuart Sapp
!!!END: 2009/10/07
!!!EED: Craig Stuart Sapp
!!!EEV: 2018/06/20
!!!EFL: 67/69
!!!AGN: piano sonata
!!!AFR: sonata-allegro
!!!title: @{OTL}, K 576, mvmt. @{OMV}
